svg/design/magic_1_line.svg

<?xml version="1.0" encoding="UTF-8"?>
<svg width="24px" height="24px" viewBox="0 0 24 24" version="1.1" xmlns="http://www.w3.org/2000/svg" xmlns:xlink="http://www.w3.org/1999/xlink">
    <title>magic_1_line</title>
    <g id="页面-1" stroke="none" stroke-width="1" fill="none" fill-rule="evenodd">
        <g id="Editor" transform="translate(-816.000000, 0.000000)">
            <g id="magic_1_line" transform="translate(816.000000, 0.000000)">
                 <path d="M24,0 L24,24 L0,24 L0,0 L24,0 Z M12.5934901,23.257841 L12.5819402,23.2595131 L12.5108777,23.2950439 L12.4918791,23.2987469 L12.4918791,23.2987469 L12.4767152,23.2950439 L12.4056548,23.2595131 C12.3958229,23.2563662 12.3870493,23.2590235 12.3821421,23.2649074 L12.3780323,23.275831 L12.360941,23.7031097 L12.3658947,23.7234994 L12.3769048,23.7357139 L12.4804777,23.8096931 L12.4953491,23.8136134 L12.4953491,23.8136134 L12.5071152,23.8096931 L12.6106902,23.7357139 L12.6232938,23.7196733 L12.6232938,23.7196733 L12.6266527,23.7031097 L12.609561,23.275831 C12.6075724,23.2657013 12.6010112,23.2592993 12.5934901,23.257841 L12.5934901,23.257841 Z M12.8583906,23.1452862 L12.8445485,23.1473072 L12.6598443,23.2396597 L12.6498822,23.2499052 L12.6498822,23.2499052 L12.6471943,23.2611114 L12.6650943,23.6906389 L12.6699349,23.7034178 L12.6699349,23.7034178 L12.678386,23.7104931 L12.8793402,23.8032389 C12.8914285,23.8068999 12.9022333,23.8029875 12.9078286,23.7952264 L12.9118235,23.7811639 L12.8776777,23.1665331 C12.8752882,23.1545897 12.8674102,23.1470016 12.8583906,23.1452862 L12.8583906,23.1452862 Z M12.1430473,23.1473072 C12.1332178,23.1423925 12.1221763,23.1452606 12.1156365,23.1525954 L12.1099173,23.1665331 L12.0757714,23.7811639 C12.0751323,23.7926639 12.0828099,23.8018602 12.0926481,23.8045676 L12.108256,23.8032389 L12.3092106,23.7104931 L12.3186497,23.7024347 L12.3186497,23.7024347 L12.3225043,23.6906389 L12.340401,23.2611114 L12.337245,23.2485176 L12.337245,23.2485176 L12.3277531,23.2396597 L12.1430473,23.1473072 Z" id="MingCute" fill-rule="nonzero"></path>
                <path d="M5.49673,3.99741 C4.58894,3.75788 3.7602,4.58662 3.99973,5.49441 L5.26365,10.2844 L2.5814,14.4494 C2.07307,15.2388 2.60515,16.283 3.54253,16.3357 L8.48867,16.6139 L11.621,20.4519 C12.2146,21.1793 13.3722,20.9959 13.712,20.1207 L15.1094,16.5214 L19.7173,21.1293 C20.1079,21.5198 20.741,21.5198 21.1315,21.1293 C21.5221,20.7388 21.5221,20.1056 21.1315,19.7151 L16.5236,15.1071 L20.123,13.7097 C20.9983,13.3699 21.1816,12.2123 20.4542,11.6186 L16.6162,8.48635 L16.3381,3.54021 C16.2854,2.60284 15.2411,2.07075 14.4517,2.57908 L10.2867,5.26133 L5.49673,3.99741 Z M7.28459,10.1044 L6.27302,6.2707 L10.1067,7.28227 C10.4392,7.37002 10.7933,7.31393 11.0825,7.12772 L14.4159,4.98099 L14.6385,8.93962 C14.6578,9.283 14.8206,9.60245 15.0871,9.8199 L18.1588,12.3268 L14.4627,13.7618 C14.1421,13.8863 13.8886,14.1398 13.7641,14.4604 L12.3291,18.1565 L9.82222,15.0847 C9.60476,14.8183 9.28532,14.6555 8.94194,14.6362 L4.98331,14.4136 L7.13004,11.0802 C7.31625,10.791 7.37234,10.4369 7.28459,10.1044 Z" id="形状" fill="#09244B"></path>
            </g>
        </g>
    </g>
</svg>

<svg xmlns="http://www.w3.org/2000/svg" width="24" height="24"><g fill="none" fill-rule="evenodd"><path d="M24 0v24H0V0h24ZM12.593 23.258l-.011.002-.071.035-.02.004-.014-.004-.071-.035c-.01-.004-.019-.001-.024.005l-.004.01-.017.428.005.02.01.013.104.074.015.004.012-.004.104-.074.012-.016.004-.017-.017-.427c-.002-.01-.009-.017-.017-.018Zm.265-.113-.013.002-.185.093-.01.01-.003.011.018.43.005.012.008.007.201.093c.012.004.023 0 .029-.008l.004-.014-.034-.614c-.003-.012-.01-.02-.02-.022Zm-.715.002a.023.023 0 0 0-.027.006l-.006.014-.034.614c0 .012.007.02.017.024l.015-.002.201-.093.01-.008.004-.011.017-.43-.003-.012-.01-.01-.184-.092Z"/><path fill="#09244B" d="M5.497 3.997A1.225 1.225 0 0 0 4 5.494l1.264 4.79L2.58 14.45c-.508.79.024 1.834.962 1.887l4.946.278 3.132 3.838a1.225 1.225 0 0 0 2.091-.331l1.397-3.6 4.608 4.608a1 1 0 0 0 1.415-1.414l-4.608-4.608 3.599-1.397a1.225 1.225 0 0 0 .331-2.091l-3.838-3.133-.278-4.946a1.225 1.225 0 0 0-1.886-.96L10.287 5.26l-4.79-1.264Zm1.788 6.107L6.273 6.271l3.834 1.011c.332.088.686.032.976-.154l3.333-2.147.223 3.959c.019.343.182.662.448.88l3.072 2.507-3.696 1.435c-.32.124-.574.378-.699.698l-1.435 3.697-2.507-3.072a1.225 1.225 0 0 0-.88-.449l-3.959-.222L7.13 11.08c.186-.289.242-.643.155-.976Z"/></g></svg>
